X:1
T:Red-Haired Lass, The
R:reel
Z:From Josephine Marsh at Kilfenora 1996. Transcribed by Z:Thom Pratt
S:Nick Howard <nick:nickthefiddle.fsnet.co.uk> tradtunes 2003-1-19
M:4/4
K:G
|:  DGGF ~G2BG | GABG ~AGEG |   DGGF  GABd |1 egdB  AGEG :|2 egdB ~c2Bc ||
|: ~d2gd  edgd | degd  BGBc |1 ~d2gd  edef |  gedB ~c2Bc \
                           :|2 ~c2cA ~B2BA |  GA (3Bcd gedB |]
